assets/svg/printer.svg

<?xml version="1.0" encoding="UTF-8"?>
<svg width="1000px" height="1000px" viewBox="0 0 1000 1000" version="1.1" xmlns="http://www.w3.org/2000/svg" xmlns:xlink="http://www.w3.org/1999/xlink">
    <!-- Generator: sketchtool 52.4 (67378) - http://www.bohemiancoding.com/sketch -->
    <title>printer</title>
    <desc>Created with sketchtool.</desc>
    <g id="新版图标" stroke="none" stroke-width="1" fill="none" fill-rule="evenodd">
        <g id="printer" fill="#323233">
            <g id="直角-打印方案">
                <path d="M833.333333,777.777778 L833.333333,611.111111 L166.666667,611.111111 L166.666667,777.777778 L56.5555556,777.777778 C56.0032708,777.777778 55.5555556,777.330063 55.5555556,776.777778 L55.5555556,334.333333 C55.5555556,333.781049 56.0032708,333.333333 56.5555556,333.333333 L943.444444,333.333333 C943.996729,333.333333 944.444444,333.781049 944.444444,334.333333 L944.444444,776.777778 C944.444444,777.330063 943.996729,777.777778 943.444444,777.777778 L833.333333,777.777778 Z M167.666667,111.111111 L832.333333,111.111111 C832.885618,111.111111 833.333333,111.558826 833.333333,112.111111 L833.333333,277.777778 L166.666667,277.777778 L166.666667,112.111111 C166.666667,111.558826 167.114382,111.111111 167.666667,111.111111 Z M819.444444,500 C842.456309,500 861.111111,481.345198 861.111111,458.333333 C861.111111,435.321469 842.456309,416.666667 819.444444,416.666667 C796.43258,416.666667 777.777778,435.321469 777.777778,458.333333 C777.777778,481.345198 796.43258,500 819.444444,500 Z M222.222222,666.666667 L777.777778,666.666667 L777.777778,887.888889 C777.777778,888.441174 777.330063,888.888889 776.777778,888.888889 L223.222222,888.888889 C222.669937,888.888889 222.222222,888.441174 222.222222,887.888889 L222.222222,666.666667 Z" id="Combined-Shape"></path>
            </g>
        </g>
    </g>
</svg>

<svg width="1000" height="1000" xmlns="http://www.w3.org/2000/svg"><path d="M833.333 777.778V611.11H166.667v166.667H56.556a1 1 0 0 1-1-1V334.333a1 1 0 0 1 1-1h886.888a1 1 0 0 1 1 1v442.445a1 1 0 0 1-1 1h-110.11zM167.667 111.11h664.666a1 1 0 0 1 1 1v165.667H166.667V112.11a1 1 0 0 1 1-1zM819.444 500c23.012 0 41.667-18.655 41.667-41.667s-18.655-41.666-41.667-41.666c-23.011 0-41.666 18.654-41.666 41.666 0 23.012 18.655 41.667 41.666 41.667zM222.222 666.667h555.556v221.222a1 1 0 0 1-1 1H223.222a1 1 0 0 1-1-1V666.667z" fill="#323233" fill-rule="evenodd"/></svg>
